X: 04
T: NEWCASTLE
B: "FIFTY OLD ENGLISH FOLK DANCE AIRS", Edgar H. Hunt ed., Schott & Co. Ltd. pub., London 1939
Z: 2004-2014 John Chambers <jc:trillian.mit.edu>
M: 2/2
L: 1/8
K: G
D2 |\
B2d2 G2A2 | (G3A) G2D2 | B2d2 G2d2 | e2 g4 (fe) |\
d2B2 A2G2 | E2 e4 (dc) | d2B2 (A3G) | G6 :|
|: (ef) |\
(gfed) g3B | A2 g4 A2 | (G3A) B2F2 | E2 e4 f2 |\
(gfed) g3B | A2A2 c3d | e2B2 (A3G) | G6 :|

%%sep 1 1 500
%%sep 1 1 500
